poi/svg/1013.svg

<?xml version="1.0" encoding="UTF-8" standalone="no"?>
<svg
   xmlns:dc="http://purl.org/dc/elements/1.1/"
   xmlns:cc="http://creativecommons.org/ns#"
   xmlns:rdf="http://www.w3.org/1999/02/22-rdf-syntax-ns#"
   xmlns:svg="http://www.w3.org/2000/svg"
   xmlns="http://www.w3.org/2000/svg"
   xmlns:sodipodi="http://sodipodi.sourceforge.net/DTD/sodipodi-0.dtd"
   xmlns:inkscape="http://www.inkscape.org/namespaces/inkscape"
   inkscape:version="1.0 (4035a4fb49, 2020-05-01)"
   sodipodi:docname="1013.svg"
   id="svg20"
   version="1.2"
   viewBox="0 0 42.519639 42.519639"
   height="14.999999mm"
   width="14.999999mm">
  <metadata
     id="metadata24">
    <rdf:RDF>
      <cc:Work
         rdf:about="">
        <dc:format>image/svg+xml</dc:format>
        <dc:type
           rdf:resource="http://purl.org/dc/dcmitype/StillImage" />
        <dc:title>Qt SVG Document</dc:title>
      </cc:Work>
    </rdf:RDF>
  </metadata>
  <sodipodi:namedview
     inkscape:current-layer="svg20"
     inkscape:window-maximized="0"
     inkscape:window-y="0"
     inkscape:window-x="0"
     inkscape:cy="28.346482"
     inkscape:cx="28.346482"
     inkscape:zoom="5.8410537"
     fit-margin-bottom="0"
     fit-margin-right="0"
     fit-margin-left="0"
     fit-margin-top="0"
     showgrid="false"
     id="namedview22"
     inkscape:window-height="480"
     inkscape:window-width="1034"
     inkscape:pageshadow="2"
     inkscape:pageopacity="0"
     guidetolerance="10"
     gridtolerance="10"
     objecttolerance="10"
     borderopacity="1"
     bordercolor="#666666"
     pagecolor="#ffffff" />
  <title
     id="title2">Qt SVG Document</title>
  <desc
     id="desc4">Generated with Qt</desc>
  <defs
     id="defs6" />
  <g
     transform="translate(5.25984,5.25984)"
     id="g18"
     stroke-linejoin="bevel"
     stroke-linecap="square"
     fill-rule="evenodd"
     stroke-width="1"
     stroke="#000000"
     fill="none">
    <g
       id="g10"
       font-style="normal"
       font-weight="400"
       font-size="7.8px"
       font-family="'MS Shell Dlg 2'"
       stroke="none"
       fill-opacity="1"
       fill="#1f78b4">
      <path
         id="path8"
         d="M 37.2598,16 C 37.2598,27.7415 27.7415,37.2598 16,37.2598 4.25851,37.2598 -5.25984,27.7415 -5.25984,16 -5.25984,4.25851 4.25851,-5.25984 16,-5.25984 27.7415,-5.25984 37.2598,4.25851 37.2598,16"
         fill-rule="evenodd"
         vector-effect="non-scaling-stroke" />
    </g>
    <g
       id="g14"
       font-style="normal"
       font-weight="400"
       font-size="7.8px"
       font-family="'MS Shell Dlg 2'"
       transform="translate(16.5669,13.1654)"
       stroke="none"
       fill-opacity="0.94902"
       fill="#ffffff">
      <path
         id="path12"
         d="m -8.97412,-4.18359 h 6.82373 v 8.94433 c 0,0.5319 -0.27295,0.79785 -0.81885,0.79785 H -3.68311 V 14.293 c 0,0.4899 -0.27294,0.7348 -0.81884,0.7348 h -6.67675 c -0.4899,0 -0.7349,-0.2449 -0.7349,-0.7348 V 8.87598 8.05713 L -8.97412,-4.18359 M 6.75195,-5.2334 H 2.27979 V -8.52979 H 6.75195 V -5.2334 M 11.959,8.05713 V 14.293 c 0,0.4899 -0.245,0.7348 -0.7349,0.7348 H 4.56836 C 4.07845,15.0278 3.8335,14.7829 3.8335,14.293 V 5.55859 H 3.01465 c -0.48991,0 -0.73486,-0.26595 -0.73486,-0.79785 V -4.18359 H 9.04053 L 11.959,8.05713 M -1.10059,-4.18359 h 2.26758 v 8.29345 h -2.26758 v -8.29345 m -5.60595,-4.3462 h 4.55615 v 3.29639 h -4.55615 v -3.29639"
         fill-rule="evenodd"
         vector-effect="none" />
    </g>
    <g
       id="g16"
       font-style="normal"
       font-weight="400"
       font-size="7.8px"
       font-family="'MS Shell Dlg 2'"
       stroke="none"
       fill-opacity="1"
       fill="#1f78b4" />
  </g>
</svg>

<?xml version="1.0" encoding="UTF-8" standalone="no"?>
<svg width="11.2889mm" height="11.2889mm"
 viewBox="0 0 32 32"
 xmlns="http://www.w3.org/2000/svg" xmlns:xlink="http://www.w3.org/1999/xlink"  version="1.2" baseProfile="tiny">
<title>Qt SVG Document</title>
<desc>Generated with Qt</desc>
<defs>
</defs>
<g fill="none" stroke="black" stroke-width="1" fill-rule="evenodd" stroke-linecap="square" stroke-linejoin="bevel" >

<g fill="#1f78b4" fill-opacity="1" stroke="none" transform="matrix(1,0,0,1,0,0)"
font-family="MS Shell Dlg 2" font-size="7.8" font-weight="400" font-style="normal" 
>
<path vector-effect="non-scaling-stroke" fill-rule="evenodd" d="M37.2598,16 C37.2598,27.7415 27.7415,37.2598 16,37.2598 C4.25851,37.2598 -5.25984,27.7415 -5.25984,16 C-5.25984,4.25851 4.25851,-5.25984 16,-5.25984 C27.7415,-5.25984 37.2598,4.25851 37.2598,16 "/>
</g>

<g fill="#ffffff" fill-opacity="0.94902" stroke="none" transform="matrix(1,0,0,1,16.5669,13.1654)"
font-family="MS Shell Dlg 2" font-size="7.8" font-weight="400" font-style="normal" 
>
<path vector-effect="none" fill-rule="evenodd" d="M-8.97412,-4.18359 L-2.15039,-4.18359 L-2.15039,4.76074 C-2.15039,5.29264 -2.42334,5.55859 -2.96924,5.55859 L-3.68311,5.55859 L-3.68311,14.293 C-3.68311,14.7829 -3.95605,15.0278 -4.50195,15.0278 L-11.1787,15.0278 C-11.6686,15.0278 -11.9136,14.7829 -11.9136,14.293 L-11.9136,8.87598 L-11.9136,8.05713 L-8.97412,-4.18359 M6.75195,-5.2334 L2.27979,-5.2334 L2.27979,-8.52979 L6.75195,-8.52979 L6.75195,-5.2334 M11.959,8.05713 L11.959,14.293 C11.959,14.7829 11.714,15.0278 11.2241,15.0278 L4.56836,15.0278 C4.07845,15.0278 3.8335,14.7829 3.8335,14.293 L3.8335,5.55859 L3.01465,5.55859 C2.52474,5.55859 2.27979,5.29264 2.27979,4.76074 L2.27979,-4.18359 L9.04053,-4.18359 L11.959,8.05713 M-1.10059,-4.18359 L1.16699,-4.18359 L1.16699,4.10986 L-1.10059,4.10986 L-1.10059,-4.18359 M-6.70654,-8.52979 L-2.15039,-8.52979 L-2.15039,-5.2334 L-6.70654,-5.2334 L-6.70654,-8.52979"/>
</g>

<g fill="#1f78b4" fill-opacity="1" stroke="none" transform="matrix(1,0,0,1,0,0)"
font-family="MS Shell Dlg 2" font-size="7.8" font-weight="400" font-style="normal" 
>
</g>
</g>
</svg>
